suite-common/icons/assets/icons/plusCircle.svg

<svg xmlns="http://www.w3.org/2000/svg" xml:space="preserve" fill="none" viewBox="0 0 24 24">
  <path fill="#000" fill-rule="evenodd" d="M11.339 2.282c-2.031.13-4.051.95-5.639 2.29-1.744 1.471-2.941 3.588-3.318 5.87a10.7 10.7 0 0 0 0 3.116 9.8 9.8 0 0 0 3.538 6.048 9.74 9.74 0 0 0 8.5 1.826 9.9 9.9 0 0 0 3.88-2.004A9.743 9.743 0 0 0 19.606 5.92a9.4 9.4 0 0 0-2.242-2.043 9.9 9.9 0 0 0-3.806-1.495c-.344-.057-1.459-.148-1.658-.135zm1.755 1.538a8.1 8.1 0 0 1 4.64 2.258c1.14 1.108 1.887 2.394 2.269 3.908.312 1.235.319 2.728.02 3.954a8.1 8.1 0 0 1-2.101 3.794c-1.108 1.14-2.394 1.887-3.908 2.269a8.6 8.6 0 0 1-4.029 0A8.3 8.3 0 0 1 6.8 18.411C6.409 18.095 5.716 17.38 5.431 17c-1.12-1.495-1.671-3.145-1.671-5 0-1.858.55-3.503 1.671-5 .285-.38.978-1.095 1.369-1.411a8.4 8.4 0 0 1 4.065-1.767c.546-.074 1.669-.075 2.229-.002M11.72 7.565c-.129.051-.309.223-.394.375-.058.105-.068.318-.078 1.708l-.012 1.588-1.588.012c-1.737.013-1.698.008-1.935.258a.72.72 0 0 0 0 .988c.237.25.198.245 1.935.258l1.588.012.012 1.588c.013 1.737.008 1.698.258 1.935a.67.67 0 0 0 .494.193.67.67 0 0 0 .494-.193c.25-.237.245-.198.258-1.935l.012-1.588 1.588-.012c1.737-.013 1.698-.008 1.935-.258A.67.67 0 0 0 16.48 12a.67.67 0 0 0-.193-.494c-.237-.25-.198-.245-1.935-.258l-1.588-.012-.012-1.588c-.01-1.39-.02-1.603-.078-1.708-.088-.159-.267-.325-.407-.377a.95.95 0 0 0-.547.002"/>
</svg>

<svg xmlns="http://www.w3.org/2000/svg" xml:space="preserve" fill="none" viewBox="0 0 24 24"><path d="M11.339 2.282 C 9.308 2.412,7.288 3.232,5.700 4.572 C 3.956 6.043,2.759 8.160,2.382 10.442 C 2.230 11.361,2.230 12.639,2.382 13.558 C 2.776 15.940,4.036 18.095,5.920 19.606 C 8.298 21.514,11.446 22.190,14.420 21.432 C 15.815 21.076,17.183 20.370,18.300 19.428 C 19.561 18.365,20.551 16.949,21.132 15.380 C 22.317 12.180,21.735 8.574,19.606 5.920 C 18.946 5.097,18.273 4.484,17.364 3.877 C 16.250 3.133,14.905 2.605,13.558 2.382 C 13.214 2.325,12.099 2.234,11.900 2.247 C 11.856 2.249,11.604 2.266,11.339 2.282 M13.094 3.820 C 14.851 4.050,16.448 4.827,17.734 6.078 C 18.874 7.186,19.621 8.472,20.003 9.986 C 20.315 11.221,20.322 12.714,20.023 13.940 C 19.667 15.397,18.970 16.657,17.922 17.734 C 16.814 18.874,15.528 19.621,14.014 20.003 C 12.747 20.323,11.252 20.323,9.985 20.003 C 8.825 19.710,7.726 19.161,6.800 18.411 C 6.409 18.095,5.716 17.380,5.431 17.000 C 4.311 15.505,3.760 13.855,3.760 12.000 C 3.760 10.142,4.310 8.497,5.431 7.000 C 5.716 6.620,6.409 5.905,6.800 5.589 C 7.955 4.654,9.415 4.020,10.865 3.822 C 11.411 3.748,12.534 3.747,13.094 3.820 M11.720 7.565 C 11.591 7.616,11.411 7.788,11.326 7.940 C 11.268 8.045,11.258 8.258,11.248 9.648 L 11.236 11.236 9.648 11.248 C 7.911 11.261,7.950 11.256,7.713 11.506 C 7.451 11.783,7.451 12.217,7.713 12.494 C 7.950 12.744,7.911 12.739,9.648 12.752 L 11.236 12.764 11.248 14.352 C 11.261 16.089,11.256 16.050,11.506 16.287 C 11.647 16.421,11.799 16.480,12.000 16.480 C 12.201 16.480,12.353 16.421,12.494 16.287 C 12.744 16.050,12.739 16.089,12.752 14.352 L 12.764 12.764 14.352 12.752 C 16.089 12.739,16.050 12.744,16.287 12.494 C 16.421 12.353,16.480 12.201,16.480 12.000 C 16.480 11.799,16.421 11.647,16.287 11.506 C 16.050 11.256,16.089 11.261,14.352 11.248 L 12.764 11.236 12.752 9.648 C 12.742 8.258,12.732 8.045,12.674 7.940 C 12.586 7.781,12.407 7.615,12.267 7.563 C 12.129 7.510,11.854 7.511,11.720 7.565 " stroke="none" fill-rule="evenodd" fill="black"></path></svg>
